X: 109
T: Boneyard
C:Garry Harrison
B: canberra pickers and fiddlers
B: old time tunes update
B: tunes
M:C|
L:1/8
R: Reel
Q: 1/4=100
K:C
V:1 
+slide+[e2e2]-|[ee]gae gaed|AcdA cdAG|EFGE GAGF|EGAE G2-GG-|
GABc degd|egdc BAGB|ABcA dcA-c|[G4c4]c2:|
GF|:EFGE GAGF|EGAE G2[G2A2]-|[AA]BcA cdcB|AcdA c2[d2e2]-|
[ee]ged c-AGc|A-cAG E-DCD|EFGA GE-DB,|1[C4E4][CE]DGF:|2[C4E4][C2E2]||
% abcbook-tune_id 67a7d9ec57f527bb35bed201
% abcbook-tune_composer_id 
% abcbook-link-0 https://www.youtube.com/watch?v=8OfHBXz0qQc
% abcbook-link-title-0 Bone Yard
% abcbook-link-start-at-0 9
% abcbook-link-end-at-0 120
% abcbook-boost 0
% abcbook-difficulty 0
% abcbook-tags old time tunes
% abcbook-tablature 
% abcbook-transpose 
% abcbook-tuning GDAE
% abcbook-lastupdated 1739101459872
% abcbook-src-url 
% abcbook-soundfonts 
% abcbook-repeats 1


